src/assets/images/portchain.svg

<svg width="190" height="23" viewBox="0 0 190 23" fill="none" xmlns="http://www.w3.org/2000/svg">
<path d="M160.262 22.994H164.514V0L160.262 0V22.994Z" fill="white"/>
<path d="M0 23H4.25217L4.25217 0.00592884L0 0.00592884L0 23Z" fill="white"/>
<path d="M185.747 16.9992V0L190 0V22.994L185.507 22.994L174.372 6.35414V22.994H170.12V0L174.372 0L185.747 16.9992Z" fill="white"/>
<path d="M126.922 0V10.2592L116.668 10.2592V0L112.415 0V22.994H116.668V14.4771L126.922 14.4771V22.994L131.174 22.994V0L126.922 0Z" fill="white"/>
<path d="M68.217 0.00330063L86.9202 0.00330063V4.22118L79.6949 4.22118V22.9999H75.4423V4.22118L68.217 4.22118V0.00330063Z" fill="white"/>
<path d="M8.53936 4.22414L8.55458 4.22381C10.2359 4.22381 11.6038 5.58067 11.6038 7.2484C11.6038 8.91619 10.2359 10.273 8.55458 10.273L8.53936 10.2727V14.4905L8.55458 14.4909C12.5805 14.4909 15.8559 11.242 15.8559 7.2484C15.8559 3.25483 12.5805 0.00592884 8.55458 0.00592884L8.53936 0.00626439V4.22414Z" fill="white"/>
<path fill-rule="evenodd" clip-rule="evenodd" d="M65.2284 22.9999H60.9764L56.1953 14.4849H51.2701V22.994H47.0179V0L57.2819 0C61.3084 0 64.5834 3.2489 64.5834 7.24247C64.5834 10.2358 62.7433 12.8108 60.1262 13.9129L65.2284 22.9999ZM51.2701 4.21788V10.2671L57.2673 10.267L57.2819 10.2671C58.9637 10.2671 60.3314 8.91026 60.3314 7.24247C60.3314 5.57474 58.9637 4.21788 57.2819 4.21788L51.2701 4.21788Z" fill="white"/>
<path fill-rule="evenodd" clip-rule="evenodd" d="M152.381 22.994H156.633L148.298 0L143.404 0L135.07 22.994H139.322L140.878 18.7014H150.825L152.381 22.994ZM142.407 14.4835L145.851 4.98095L149.296 14.4835H142.407Z" fill="white"/>
<path fill-rule="evenodd" clip-rule="evenodd" d="M19.3822 11.497C19.3822 5.14743 24.5715 0 30.9728 0C37.374 0 42.5632 5.14743 42.5632 11.497C42.5632 17.8467 37.374 22.994 30.9728 22.994C24.5715 22.994 19.3822 17.8467 19.3822 11.497ZM23.3095 11.497C23.3095 15.6952 26.7404 19.0985 30.9728 19.0985C35.2051 19.0985 38.636 15.6952 38.636 11.497C38.636 7.29884 35.2051 3.89554 30.9728 3.89554C26.7404 3.89554 23.3095 7.29884 23.3095 11.497Z" fill="white"/>
<path d="M96.9634 4.9205C98.105 4.25524 99.4321 3.87189 100.849 3.87189C102.266 3.87189 103.593 4.25524 104.735 4.9205L107.548 2.13039C105.655 0.795954 103.342 0.0105163 100.849 0.0105163C98.3553 0.0105163 96.0433 0.795954 94.1507 2.13039L96.9634 4.9205Z" fill="white"/>
<path d="M100.849 19.1386C102.266 19.1386 103.593 18.7553 104.735 18.09L107.548 20.8801C105.655 22.2146 103.342 23 100.849 23C94.4591 23 89.261 17.8435 89.261 11.5053C89.261 9.03167 90.0526 6.7381 91.3983 4.86077L94.211 7.65088C93.5401 8.78304 93.1534 10.0999 93.1534 11.5053C93.1534 15.7144 96.6059 19.1386 100.849 19.1386Z" fill="white"/>
</svg>

<svg xmlns="http://www.w3.org/2000/svg" width="190" height="23" fill="none"><path fill="#fff" d="M160.26 23h4.25V0h-4.25zM0 23h4.25V0H0zm185.75-6V0H190v23h-4.5L174.38 6.34V23h-4.25V0h4.25zM126.92 0v10.26h-10.25V0h-4.25v23h4.25v-8.52h10.25v8.51h4.25V0zm-58.7 0h18.7v4.22h-7.23V23h-4.25V4.22h-7.22zM8.54 4.22a3.04 3.04 0 0 1 3.05 3.03 3.04 3.04 0 0 1-3.05 3.02h-.01v4.22h.01c4.03 0 7.3-3.25 7.3-7.24S12.59 0 8.56 0h-.01z"/><path fill="#fff" fill-rule="evenodd" d="M65.23 23h-4.25l-4.78-8.52h-4.93V23h-4.25V0h10.26c4.03 0 7.3 3.25 7.3 7.24 0 3-1.84 5.57-4.45 6.67zM51.27 4.22v6.05h6.01a3.04 3.04 0 0 0 3.05-3.03 3.04 3.04 0 0 0-3.05-3.02zM152.38 23h4.25L148.3 0h-4.9l-8.33 23h4.25l1.56-4.3h9.94zm-9.97-8.52 3.44-9.5 3.45 9.5zM19.38 11.5c0-6.35 5.2-11.5 11.6-11.5s11.58 5.15 11.58 11.5S37.37 23 30.97 23s-11.59-5.15-11.59-11.5m3.93 0c0 4.2 3.43 7.6 7.66 7.6s7.67-3.4 7.67-7.6-3.43-7.6-7.67-7.6a7.63 7.63 0 0 0-7.66 7.6" clip-rule="evenodd"/><path fill="#fff" d="M96.96 4.92a7.7 7.7 0 0 1 7.78 0l2.8-2.79a11.6 11.6 0 0 0-13.39 0zm3.89 14.22a7.7 7.7 0 0 0 3.89-1.05l2.8 2.79a11.6 11.6 0 0 1-6.7 2.12 11.55 11.55 0 0 1-11.58-11.5c0-2.47.8-4.76 2.14-6.64l2.81 2.8a7.5 7.5 0 0 0-1.06 3.85c0 4.2 3.46 7.63 7.7 7.63"/></svg>
